X:71
T:Reel 71
M:4/4
K:Dmaj
L:1/8
AG|FEDA  (3Bcd AF|GBAF GEEG|FDDF ABcdAF|GBAF D2DG|FEDd  (3Bcd AF|GBAF G2EG|FDDF  (3Bcd AF|GBAF D2|DE|FEDG AGAF|GBAF FDDG|FEDE FGAg|fdec d2AG|FGAB c2AB|cdBG AFGE|FEDE  (3FGA BG|AFGE D2|
